assets/svg/icon_post_verifyaccount.svg

<svg width="24" height="24" viewBox="0 0 24 24" fill="none" xmlns="http://www.w3.org/2000/svg">
<path d="M19.867 9.975L20.3006 9.56025L20.2967 9.55628L19.867 9.975ZM19.0071 7.92589L18.4072 7.93208L18.4072 7.93721L19.0071 7.92589ZM16.0741 4.99286L16.0628 5.59277L16.0679 5.59283L16.0741 4.99286ZM14.025 4.13304L14.4437 3.70328L14.4397 3.69945L14.025 4.13304ZM9.975 4.13304L9.56025 3.69943L9.55628 3.7033L9.975 4.13304ZM7.92589 4.99286L7.93208 5.59285L7.93721 5.59275L7.92589 4.99286ZM4.99286 7.92589L5.59277 7.93721L5.59283 7.93208L4.99286 7.92589ZM4.13304 9.975L3.70328 9.55626L3.69945 9.56027L4.13304 9.975ZM4.13304 14.025L3.69943 14.4398L3.7033 14.4437L4.13304 14.025ZM4.99286 16.0741L5.59285 16.0679L5.59275 16.0628L4.99286 16.0741ZM7.92589 19.0071L7.93721 18.4072L7.93208 18.4072L7.92589 19.0071ZM9.975 19.867L9.55626 20.2967L9.56027 20.3005L9.975 19.867ZM14.025 19.867L14.4398 20.3006L14.4437 20.2967L14.025 19.867ZM16.0741 19.0071L16.0679 18.4072L16.0628 18.4072L16.0741 19.0071ZM19.0071 16.0741L18.4072 16.0628L18.4072 16.0679L19.0071 16.0741ZM19.867 14.025L20.2967 14.4437L20.3005 14.4397L19.867 14.025ZM8.99569 11.9976C8.76138 11.7633 8.38148 11.7633 8.14716 11.9976C7.91285 12.2319 7.91285 12.6118 8.14716 12.8461L8.99569 11.9976ZM10.7143 14.5647L10.29 14.989C10.5165 15.2155 10.8809 15.2241 11.1179 15.0087L10.7143 14.5647ZM15.8322 10.723C16.0774 10.5001 16.0954 10.1206 15.8725 9.87541C15.6496 9.63022 15.2702 9.61215 15.025 9.83505L15.8322 10.723ZM20.2967 9.55628C20.1431 9.39866 20.003 9.25259 19.8875 9.11505C19.7672 8.97184 19.7043 8.87309 19.6792 8.81454L18.5762 9.28724C18.6716 9.50995 18.8256 9.71655 18.9685 9.88674C19.1162 10.0626 19.2854 10.2379 19.4372 10.3937L20.2967 9.55628ZM19.6792 8.81454C19.6587 8.76678 19.6362 8.67187 19.6236 8.499C19.6111 8.32753 19.6114 8.14446 19.607 7.91457L18.4072 7.93721C18.4109 8.13322 18.4112 8.37203 18.4268 8.58627C18.4423 8.79912 18.4761 9.05376 18.5762 9.28724L19.6792 8.81454ZM19.6071 7.91971C19.5996 7.18913 19.6079 6.03082 18.7885 5.21145L17.94 6.05998C18.3582 6.47811 18.3986 7.10373 18.4072 7.93208L19.6071 7.91971ZM18.7885 5.21145C17.9692 4.39208 16.8109 4.40042 16.0803 4.39289L16.0679 5.59283C16.8963 5.60136 17.5219 5.64184 17.94 6.05998L18.7885 5.21145ZM16.0854 4.39296C15.8679 4.38886 15.6729 4.38499 15.5007 4.37078C15.3206 4.35593 15.2174 4.33312 15.169 4.31408L14.7292 5.43057C14.946 5.51599 15.1924 5.54943 15.402 5.56672C15.6195 5.58465 15.8544 5.58882 16.0628 5.59275L16.0854 4.39296ZM15.169 4.31408C15.1321 4.29953 15.0414 4.24515 14.8915 4.11899C14.7517 4.0013 14.6015 3.85703 14.4437 3.7033L13.6063 4.56277C13.7619 4.7144 13.9411 4.88754 14.1187 5.03704C14.2863 5.17806 14.5009 5.34065 14.7292 5.43057L15.169 4.31408ZM14.4397 3.69945C13.9252 3.20727 13.1172 2.4 12 2.4V3.6C12.5542 3.6 13.0159 3.99809 13.6103 4.56662L14.4397 3.69945ZM12 2.4C10.8828 2.4 10.0748 3.20727 9.56027 3.69945L10.3897 4.56662C10.9841 3.99809 11.4458 3.6 12 3.6V2.4ZM9.55628 3.7033C9.39866 3.85688 9.25259 3.997 9.11505 4.11251C8.97184 4.23276 8.87309 4.29574 8.81454 4.32083L9.28724 5.42381C9.50995 5.32836 9.71655 5.17438 9.88674 5.03147C10.0626 4.8838 10.2379 4.71455 10.3937 4.56277L9.55628 3.7033ZM8.81454 4.32083C8.76678 4.3413 8.67187 4.36376 8.499 4.37637C8.32753 4.38887 8.14446 4.38863 7.91457 4.39296L7.93721 5.59275C8.13322 5.58905 8.37203 5.58881 8.58627 5.57319C8.79912 5.55767 9.05376 5.52388 9.28724 5.42381L8.81454 4.32083ZM7.91971 4.39289C7.18913 4.40042 6.03082 4.39208 5.21145 5.21145L6.05998 6.05998C6.47811 5.64184 7.10373 5.60136 7.93208 5.59283L7.91971 4.39289ZM5.21145 5.21145C4.39208 6.03082 4.40042 7.18913 4.39289 7.91971L5.59283 7.93208C5.60136 7.10373 5.64184 6.47811 6.05998 6.05998L5.21145 5.21145ZM4.39296 7.91457C4.38886 8.13211 4.38499 8.32705 4.37078 8.49934C4.35593 8.67943 4.33312 8.78264 4.31408 8.83098L5.43057 9.27081C5.51599 9.05397 5.54943 8.80762 5.56672 8.59798C5.58465 8.38054 5.58882 8.14557 5.59275 7.93721L4.39296 7.91457ZM4.31408 8.83098C4.29953 8.86792 4.24515 8.9586 4.11899 9.10847C4.0013 9.24828 3.85703 9.3985 3.7033 9.55628L4.56277 10.3937C4.7144 10.2381 4.88754 10.0589 5.03704 9.88126C5.17806 9.71372 5.34065 9.49905 5.43057 9.27081L4.31408 8.83098ZM3.69945 9.56027C3.20727 10.0748 2.4 10.8828 2.4 12H3.6C3.6 11.4458 3.99809 10.9841 4.56662 10.3897L3.69945 9.56027ZM2.4 12C2.4 13.1172 3.20727 13.9252 3.69945 14.4397L4.56662 13.6103C3.99809 13.0159 3.6 12.5542 3.6 12H2.4ZM3.7033 14.4437C3.85688 14.6013 3.997 14.7474 4.11251 14.885C4.23276 15.0282 4.29574 15.1269 4.32083 15.1855L5.42381 14.7128C5.32836 14.4901 5.17438 14.2834 5.03147 14.1133C4.8838 13.9374 4.71455 13.7621 4.56277 13.6063L3.7033 14.4437ZM4.32083 15.1855C4.3413 15.2332 4.36376 15.3281 4.37637 15.501C4.38887 15.6725 4.38863 15.8555 4.39296 16.0854L5.59275 16.0628C5.58905 15.8668 5.58881 15.628 5.57319 15.4137C5.55767 15.2009 5.52388 14.9462 5.42381 14.7128L4.32083 15.1855ZM4.39289 16.0803C4.40042 16.8109 4.39208 17.9692 5.21145 18.7885L6.05998 17.94C5.64184 17.5219 5.60136 16.8963 5.59283 16.0679L4.39289 16.0803ZM5.21145 18.7885C6.03082 19.6079 7.18913 19.5996 7.91971 19.6071L7.93208 18.4072C7.10373 18.3986 6.47811 18.3582 6.05998 17.94L5.21145 18.7885ZM7.91457 19.607C8.13211 19.6111 8.32705 19.615 8.49934 19.6292C8.67943 19.6441 8.78264 19.6669 8.83098 19.6859L9.27081 18.5694C9.05397 18.484 8.80762 18.4506 8.59798 18.4333C8.38054 18.4153 8.14557 18.4112 7.93721 18.4072L7.91457 19.607ZM8.83098 19.6859C8.86792 19.7005 8.9586 19.7548 9.10848 19.881C9.24828 19.9987 9.3985 20.143 9.55628 20.2967L10.3937 19.4372C10.2381 19.2856 10.0589 19.1125 9.88126 18.963C9.71372 18.8219 9.49905 18.6593 9.27081 18.5694L8.83098 19.6859ZM9.56027 20.3005C10.0748 20.7927 10.8828 21.6 12 21.6V20.4C11.4458 20.4 10.9841 20.0019 10.3897 19.4334L9.56027 20.3005ZM12 21.6C13.1172 21.6 13.9252 20.7927 14.4397 20.3005L13.6103 19.4334C13.0159 20.0019 12.5542 20.4 12 20.4V21.6ZM14.4437 20.2967C14.6013 20.1431 14.7474 20.003 14.885 19.8875C15.0282 19.7672 15.1269 19.7043 15.1855 19.6792L14.7128 18.5762C14.4901 18.6716 14.2834 18.8256 14.1133 18.9685C13.9374 19.1162 13.7621 19.2854 13.6063 19.4372L14.4437 20.2967ZM15.1855 19.6792C15.2332 19.6587 15.3281 19.6362 15.501 19.6236C15.6725 19.6111 15.8555 19.6114 16.0854 19.607L16.0628 18.4072C15.8668 18.4109 15.628 18.4112 15.4137 18.4268C15.2009 18.4423 14.9462 18.4761 14.7128 18.5762L15.1855 19.6792ZM16.0803 19.6071C16.8109 19.5996 17.9692 19.6079 18.7885 18.7885L17.94 17.94C17.5219 18.3582 16.8963 18.3986 16.0679 18.4072L16.0803 19.6071ZM18.7885 18.7885C19.6079 17.9692 19.5996 16.8109 19.6071 16.0803L18.4072 16.0679C18.3986 16.8963 18.3582 17.5219 17.94 17.94L18.7885 18.7885ZM19.607 16.0854C19.6111 15.8679 19.615 15.6729 19.6292 15.5007C19.6441 15.3206 19.6669 15.2174 19.6859 15.169L18.5694 14.7292C18.484 14.946 18.4506 15.1924 18.4333 15.402C18.4153 15.6195 18.4112 15.8544 18.4072 16.0628L19.607 16.0854ZM19.6859 15.169C19.7005 15.1321 19.7548 15.0414 19.881 14.8915C19.9987 14.7517 20.143 14.6015 20.2967 14.4437L19.4372 13.6063C19.2856 13.7619 19.1125 13.9411 18.963 14.1187C18.8219 14.2863 18.6593 14.501 18.5694 14.7292L19.6859 15.169ZM20.3005 14.4397C20.7927 13.9252 21.6 13.1172 21.6 12H20.4C20.4 12.5542 20.0019 13.0159 19.4334 13.6103L20.3005 14.4397ZM21.6 12C21.6 10.8828 20.7927 10.0748 20.3005 9.56027L19.4334 10.3897C20.0019 10.9841 20.4 11.4458 20.4 12H21.6ZM8.14716 12.8461L10.29 14.989L11.1385 14.1405L8.99569 11.9976L8.14716 12.8461ZM11.1179 15.0087L15.8322 10.723L15.025 9.83505L10.3107 14.1208L11.1179 15.0087Z" fill="#0166FF"/>
</svg>

<svg xmlns="http://www.w3.org/2000/svg" width="24" height="24" fill="none"><path fill="#0166FF" d="m19.867 9.975.434-.415-.004-.004zm-.86-2.05-.6.007v.005zm-2.933-2.932-.011.6h.005zm-2.049-.86.419-.43-.004-.004zm-4.05 0-.415-.434-.004.004zm-2.05.86.007.6h.005zM4.994 7.926l.6.011v-.005zm-.86 2.049-.43-.419-.004.004zm0 4.05-.434.415.004.004zm.86 2.05.6-.007v-.005zm2.933 2.932.011-.6h-.005zm2.049.86-.419.43.004.003zm4.05 0 .415.434.004-.004zm2.05-.86-.007-.6h-.005zm2.932-2.933-.6-.011v.005zm.86-2.049.43.419.003-.004zM8.996 11.998a.6.6 0 0 0-.849.848zm1.718 2.567-.424.424a.6.6 0 0 0 .828.02zm5.118-3.842a.6.6 0 0 0-.807-.888zm4.465-1.167a8 8 0 0 1-.41-.44 1.4 1.4 0 0 1-.208-.301l-1.103.472c.096.223.25.43.392.6.148.176.317.35.47.507zm-.618-.741a1 1 0 0 1-.055-.316c-.013-.171-.013-.355-.017-.584l-1.2.022c.004.196.004.435.02.65.015.212.05.467.15.7zm-.072-.895c-.007-.73 0-1.89-.819-2.709l-.848.849c.418.418.459 1.044.467 1.872zm-.819-2.709c-.819-.819-1.977-.81-2.708-.818l-.012 1.2c.828.008 1.454.049 1.872.467zm-2.703-.818a10 10 0 0 1-.584-.022 1.3 1.3 0 0 1-.332-.057l-.44 1.117c.217.085.463.118.673.136.218.018.452.022.66.026zm-.916-.079a1.3 1.3 0 0 1-.277-.195 9 9 0 0 1-.448-.416l-.838.86c.156.151.335.325.513.474.167.141.382.304.61.394zm-.73-.615C13.926 3.207 13.118 2.4 12 2.4v1.2c.554 0 1.016.398 1.61.967zM12 2.4c-1.117 0-1.925.807-2.44 1.3l.83.867c.594-.569 1.056-.967 1.61-.967zM9.556 3.703a9 9 0 0 1-.44.41c-.144.12-.243.183-.301.208l.472 1.103c.223-.096.43-.25.6-.393.176-.147.35-.316.507-.468zm-.741.618c-.048.02-.143.043-.316.055-.171.013-.355.013-.584.017l.022 1.2c.196-.004.435-.004.65-.02.212-.015.467-.05.7-.15zm-.895.072c-.73.007-1.89 0-2.709.818l.849.849c.418-.418 1.044-.459 1.872-.467zM5.21 5.21c-.819.82-.81 1.978-.818 2.709l1.2.012c.008-.828.049-1.454.467-1.872zm-.818 2.704a10 10 0 0 1-.022.584 1.3 1.3 0 0 1-.057.332l1.117.44c.085-.217.118-.463.136-.673.018-.217.022-.452.026-.66zm-.079.916a1.3 1.3 0 0 1-.195.277c-.118.14-.262.29-.416.448l.86.838a10 10 0 0 0 .474-.513c.141-.167.304-.382.394-.61zm-.615.73C3.207 10.074 2.4 10.882 2.4 12h1.2c0-.554.398-1.016.967-1.61zM2.4 12c0 1.117.807 1.925 1.3 2.44l.867-.83C3.998 13.016 3.6 12.554 3.6 12zm1.303 2.444c.154.157.294.303.41.441.12.143.183.242.208.3l1.103-.472a2.5 2.5 0 0 0-.393-.6 10 10 0 0 0-.468-.507zm.618.741c.02.048.043.143.055.316.013.172.013.354.017.584l1.2-.022c-.004-.196-.004-.435-.02-.65a2.2 2.2 0 0 0-.15-.7zm.072.895c.007.73 0 1.89.818 2.709l.849-.849c-.418-.418-.459-1.044-.467-1.872zm.818 2.709c.82.819 1.978.81 2.709.818l.012-1.2c-.828-.008-1.454-.049-1.872-.467zm2.704.818c.217.004.412.008.584.022.18.015.284.038.332.057l.44-1.117a2.4 2.4 0 0 0-.673-.136c-.217-.018-.452-.022-.66-.026zm.916.079c.037.015.128.069.277.195.14.118.29.262.448.416l.838-.86a10 10 0 0 0-.513-.474c-.167-.141-.382-.304-.61-.394zm.73.614c.514.493 1.322 1.3 2.439 1.3v-1.2c-.554 0-1.016-.398-1.61-.967zM12 21.6c1.117 0 1.925-.807 2.44-1.3l-.83-.867c-.594.569-1.056.967-1.61.967zm2.444-1.303a8 8 0 0 1 .441-.41c.143-.12.242-.183.3-.208l-.472-1.103c-.223.096-.43.25-.6.392a10 10 0 0 0-.507.47zm.741-.618c.048-.02.143-.043.316-.055.172-.013.354-.013.584-.017l-.022-1.2c-.196.004-.435.004-.65.02-.212.015-.467.05-.7.15zm.895-.072c.73-.007 1.89 0 2.709-.819l-.849-.848c-.418.418-1.044.459-1.872.467zm2.709-.819c.819-.819.81-1.977.818-2.708l-1.2-.012c-.008.828-.049 1.454-.467 1.872zm.818-2.703c.004-.217.008-.412.022-.584.015-.18.038-.284.057-.332l-1.117-.44a2.4 2.4 0 0 0-.136.673c-.018.218-.022.452-.026.66zm.079-.916a1.3 1.3 0 0 1 .195-.277c.118-.14.262-.29.416-.448l-.86-.838a10 10 0 0 0-.474.513c-.141.167-.304.382-.394.61zm.614-.73c.493-.514 1.3-1.322 1.3-2.439h-1.2c0 .554-.398 1.016-.967 1.61zM21.6 12c0-1.117-.807-1.925-1.3-2.44l-.867.83c.569.594.967 1.056.967 1.61zm-13.453.846 2.143 2.143.849-.849-2.143-2.142zm2.97 2.163 4.715-4.286-.807-.888-4.714 4.286z"/></svg>
